X: 29
T:Angeline The Baker
M:4/4
L:1/4
C:
S:AABB form
R:Key of D
K:D
|:A,B,D>A,|B,DDD|A,B,D>A,|B,B,B,B,|!
|A,B,D>E|FEDE|FEDB,|A,2A,2:|!
|:AFED/2E/2|FEDD|AFED|B,2B,2|!
|AFED/2E/2|FEDE|FEDB,|A,2A,2:|
